dist/images/svg/callback-logo.svg

<svg width="172" height="117" viewBox="0 0 172 117" fill="none" xmlns="http://www.w3.org/2000/svg">
<path fill-rule="evenodd" clip-rule="evenodd" d="M27.3271 104.845C48.9686 104.845 53.0467 85.9472 53.0467 70.8167C55.6171 70.8167 75.9308 70.8167 85.1963 70.8167C135.595 70.8167 135.608 0 86.8037 0C73.5292 0 64.979 7.99229 62.69 10.7765C35.4593 10.7765 32.1495 24.907 32.1495 52.3443C32.1495 57.6375 32.1495 74.844 32.1495 77.4944C32.1495 83.9457 29.539 88.1311 22.5031 88.1311C16.4959 88.1311 13.6507 82.8485 11.2507 75.4352C10.0001 76.1023 1.21847 80.8196 0 81.5932C2.65716 88.9988 5.50239 104.845 27.3271 104.845ZM57.9238 41.5663C66.1686 41.5663 66.8694 53.8823 57.3403 53.8823C49.3077 53.8823 49.5167 41.5663 57.9238 41.5663ZM86.8054 78.4731C79.8369 78.4731 59.4766 76.9747 59.4766 76.9747V114.944L78.7664 115.217L83.5888 87.7511L144.673 86.6113L146.282 116.725L168.787 117C168.787 117 172 58.0175 172 46.1848C172 24.2368 162.112 11.8144 139.85 10.7765C134.273 10.5166 126.975 9.48315 122.168 9.23696C143.118 34.5543 126.449 78.4731 86.8054 78.4731ZM125.385 93.8681L126.991 116.178L139.85 116.453L138.243 93.8681H125.385V93.8681ZM85.1963 115.494L98.0561 115.767L101.269 93.8681H90.0171L85.1963 115.494Z" fill="#FF862F"/>
</svg>

<svg width="172" height="117" fill="none" xmlns="http://www.w3.org/2000/svg"><path fill-rule="evenodd" clip-rule="evenodd" d="M27.327 104.845c21.642 0 25.72-18.898 25.72-34.028h32.15C135.594 70.817 135.607 0 86.803 0 73.529 0 64.979 7.992 62.69 10.777c-27.23 0-30.54 14.13-30.54 41.567v25.15c0 6.452-2.611 10.637-9.647 10.637-6.007 0-8.852-5.282-11.252-12.696C10 76.102 1.218 80.82 0 81.593 2.657 89 5.502 104.845 27.327 104.845Zm30.597-63.279c8.245 0 8.945 12.316-.584 12.316-8.032 0-7.823-12.316.584-12.316Zm28.881 36.907c-6.968 0-27.328-1.498-27.328-1.498v37.969l19.29.273 4.822-27.466 61.084-1.14 1.609 30.114 22.505.275S172 58.017 172 46.185c0-21.948-9.888-34.37-32.15-35.409-5.577-.26-12.875-1.293-17.682-1.539 20.95 25.317 4.281 69.236-35.363 69.236Zm38.58 15.395 1.606 22.31 12.859.275-1.607-22.585h-12.858Zm-40.189 21.626 12.86.273 3.213-21.899H90.017l-4.82 21.626Z" fill="#FF862F"/></svg>
